X: 40305
T: Tom And Martin
R: jig
M: 6/8
K: Bdorian
B2 B dcB|B/=c/^cB BAF|AGB ABc|dfd ecA|
BFF AFF|dBB c/B/Ac|dfd ecA|1 dBc B2 F:|2 dBc B2 b||
a3 geg|fBc B2 d|/c/B/Ac dBd|cAc B2 B|
bBB aBB|gBB fBc|A2 A c/d/ef|1 edc B2 b:|2 edc B2 F||

